!!!id: BC038
!!!page: 50
!!!COM: Lapierre, Eugène (D.M.)
!!!LYR: Lapierre, Eugène (D.M.)
!!!PTL@@FR: Les 100 plus belles chansons
!!!OTL@@FR: Il faut croire au bonheur
!!!PUB: La Bonne Chanson, inc.
!!!YEM: On ne peut reproduire, enregistrer ou diffuser en tout ou en partie le présent ouvrage, sous quelque procédé que ce soit, électronique, mécanique, photographique, sonore, magnétique ou autre, sans avoir obtenu au préalable l'autorisation écrite de l'éditrice.
!!!PDT: 2011
!!!SMA: 2012 Bibliothèque nationale du Québec; Biblothèque nationale du Canada
!!!AGN-Laforte: Chanson strophique (avec refrain intégré, *pline:8r: "Il faut croire au bonheur"), 3:8(6); *pline:19 is irregular, i.e., /ɛ/ instead of /ɛ:/.
!!!AGN-type: Chanson d'amour
!!!AGN-rime: croisées (abab)
**kern	**text	**text	**text
*>[A,A12,A,A12,A,A3]	*>[A,A12,A,A12,A,A3]	*>[A,A12,A,A12,A,A3]	*>[A,A12,A,A12,A,A3]
*clefG2	*	*	*
*k[b-]	*	*	*
*F:	*	*	*
*M2/4	*	*	*
=4	=4	=4	=4
*>A	*>A	*>A	*>A
*	*v:1	*v:2	*v:3
*	*pline:1	*pline:9	*pline:17
{{8c	O	É-	Vois
=5	=5	=5	=5
8a	toi	-cou-	le
8a	qui	-te,	ruis-
8b-	de	l'oi-	-seau
8b-	ma	-seau	qui
=6	=6	=6	=6
4cc	vi-	chan-	rê-
8f	-e	-te:	-ve,
*	*rp:i	*rp:ɑ̃	*rp:ɛː
*	*rf:i,ə	*rf:ʃɑ̃t,ə	*rf:ɛːv,ə
*	*rs:a1	*rs:b2	*rs:e0
*	*pline:2	*pline:10	*pline:18
8b-	Sais	Il	Il
!!LO:PB:g=original
=7	=7	=7	=7
8a	do-	se	ne
8a	-rer	rit	sait
8g	les	de	pas
8g	ins-	tes	vieil-
=8	=8	=8	=8
4a	-tants,	pleurs.	-lir;
*	*rp:ɑ̃	*pf:œ	*rp:i
*	*rf:ɑ̃	*rf:lœʁ	*rp:jiʁ
*	*rs:b1	*rs:d1	*rs:a2
*	*pline:3	*pline:11	*pline:19
8r}	.	.	.
{8c	O	De	La
=9	=9	=9	=9
8a	douc[e]	l'a-	bri-
8a	et	-mour	-se
8b-	tendr[e]	qui	le
8b-	a-	l'en-	sou-
=10	=10	=10	=10
4cc	-mi-	-chan-	-lè-
8f}}	-e,	te	-ve
*	*rp:i	*rp:ɑ̃	*rp:ɛ
*	*rf:i,ə	*rf:ʃɑ̃t,ə	*rf:ɛv,ə
*	*rs:a1	*rs:b2	*rs:f1
*	*pline:4	*pline:12	*pline:20
{{8b-	Fais	Il	Et
!!LO:PB:g=original
=11	=11	=11	=11
8a	trèv[e]	re-	le
8a	à	-dit	fait
8g	ton	la	tres-
8g	tour-	fer-	sail-
=12	=12	=12	=12
4f	-ment.	-veur.	-lir.
*	*rp:ɑ̃	*rf:œ	*rp:i
*	*rf:ɑ̃	*rf:œʁ	*rf:jiʁ
*	*rs:b1	*rs:d2	*rs:a2
8r}	.	.	.
*	*pline:5	*pline:13	*pline:21
{8f	Pour-	Np	La
=13	=13	=13	=13
8b-	-quoi	sois	terr[e]
8cc	res-	pas	est
8dd	-ter	si	en
8ee	mo-	do-	li-
=14	=14	=14	=14
4ff	-ro-	-len-	-es-
8c,}	-se	-te,	-se,
*	*rp:o	*rp:ɑ̃	*rp:ɛ
*	*rf:ʁoz,ə	*rf:ɑ̃t,ə	*rf:ɛs,ə
*	*rs:c	*rs:b3	*rs:f2
*	*pline:6	*pline:14	*pline:22
{8a	De-	Re-	Tout
!!LO:PB:g=original
=15	=15	=15	=15
8cc	-vant	-viens	chan-
8cc	les	de	-te
(16ccL	prés	ta	dans
16b-J)	.	.	.
8a	en	froi-	les
=16	=16	=16	=16
4g	fleurs?	-deur.	coeurs;
*	*rp:œ	*rp:œ	*rp:œ
*	*rf:lœʁ	*rf:œʁ	*rf:œʁ
*	*rs:d1	*rs:d2	*rs:d2
8r}}	.	.	.
*	*pline:7	*pline:15	*pline:23
{{8c	Puis-	Et	De-
=17	=17	=17	=17
8a	-qu'il	puis-	-vant
8a	y	-que	tant
8b-	a	l'oi-	d'al-
8b-	des	-seau	-lé-
=18	=18	=18	=18
4cc	ro-	chan-	-gres-
8f	-ses,	-te,	-se,
*	*rp:o	*rp:ɑ̃	*rp:ɛ
*	*rf:ʁoz,ə	*rf:ʃɑ̃t,ə	*rf:ɛs,ə
*	*rs:c	*rs:b2	*rs:f2
*	*pline:8	*pline:16=8r	*pline:24=8r
8b-	Il	Il	Il
!!LO:PB:g=original
=19	=19	=19	=19
!!LO:TX:a:t=1,2
*>A12	*>A12	*>A12	*>A12
8a	faut	faut	faut
8a	croir[e]	croir[e]	croir[e]
8g	au	au	au
8g	bon-	bon-	bon-
=20	=20	=20	=20
4f	-heur!	-heur!	-heur!
*	*rp:œ	*rp:œ	*rp:œ
*	*rf:œʁ	*rf:œʁ	*rf:œʁ
*	*rs:d2	*rs:d2	*rs:d2
8r}	.	.	.
*>A3	*>A3	*>A3	*>A3
=:||	=||	=||	=||
8a	faut	faut	faut
8a	croir[e]	croir[e]	croir[e]
!!LO:TX:a:i:t=rit.
8cc	au	au	au
8cc	bon-	bon-	bon-
=20	=20	=20	=20
2ff;}	-heur!	-heur!	-heur!
*	*rp:œ	*rp:œ	*rp:œ
*	*rf:œʁ	*rf:œʁ	*rf:œʁ
*	*rs:d2	*rs:d2	*rs:d2
==	==	==	==
*-	*-	*-	*-
!!!EED: Ève Poudrier
!!!EEV: 2025/June/20
!!!RNB: Inital 3 bars of rests not encoded; measure numbering preserved. Layout differ from original: no pick-up note at the end of the strophe and del segno replaced by repeats at m. 5 and end of m. 20, 1st/2nd ending. Ending numbers added.
